X: 32184
T: Petersburg Fisherman's Banjo Pickin' Blues
R: reel
M: 4/4
K: Eminor
|:e2ed e2g2|edB2 dBAG|A2AB AGE2|E4 Bcd2|
e2ed e2g2|edB2 dBAG|A2AB AGE2|1 E8:|2 E4 BAG2||
|:A4 A3G|BAG2 Bcd2|A4 A3A|GFE2 E2FG|
A4 A3G|BAG2 Bcd2|e2eg fed2|1 e4 BAG2:|2 e8||

